X:1126
M:2/4
L:1/8
Q:1/4=104
K:D
d/e/|f>g`f```a    |e>f`ea   |dB e/f/g/e/|dcz
d/e/|fd  d/e/f/d/ |g3   f/e/|fd d/e/f/d/|g3
e   |fd  B```e/f/ |ge  cB/A/|ad e/d/e/f/|d3|]

